X: 1
T: Amazing Mushroom, The
M: 4/4
L: 1/8
R: reel
K: Dmaj
fA~A2 BcdB|(3ABA DF EFDE|FADF GBEB|Aceg fede|
fA~A2 BcdB|AFDF (3EFE DE|FA~A2 GB~B2|Aceg fdde:|
f2af gfed|gB~B2 BcdB|A2eA fAeA|Acef gfed|
af~f2 gfed|gB~B2 BcdB|A2eA fAeA|Aceg fdde:|
